X:1
T:Loch Muick [1]
T:Loch Muick [1]
T:Alexander Walker
C:Alexander Walker
L:1/8
M:4/4
K:F#min
V:1 treble 
V:1
|: C | F<FF>C F2 F>G | E<EE<B, E2 E>G | F<FF>G A>Bc>A | c/d/e/d/ c/B/A/G/ A<FFC | F<FF>C F2 F>G | %6
 E<EE<B, E2 E>G | F<FF>G A>Bc>A | e>c c/B/A/G/ A<F F || c | f>g a/g/f/e/ f<cc>A | %11
 B/c/e/B/ c/B/A/F/ E>FG>E | f>g a/g/f/e/ f<cc>f | c<B{B}e>G{G} (F2 F>)c | f>g a/g/f/e/ f<cc>d | %15
 (3efg (3cde (3Bce G<E | F>CA>F c>B(c<f) | e>c{c}B>G F/F/F F || %18

